tools/download-figma-icons/icons/outlined-medium/detached-house-alternative.svg

<svg width="24" height="24" viewBox="0 0 24 24" fill="none" xmlns="http://www.w3.org/2000/svg">
<path fill-rule="evenodd" clip-rule="evenodd" d="M12.5086 0.2025L23.7612 10.7025C24.0613 10.98 24.0838 11.46 23.7987 11.76C23.6487 11.9175 23.4537 12 23.2511 12C23.0711 12 22.8835 11.9325 22.741 11.7975L21.0006 10.1775V23.25C21.0006 23.6625 20.663 24 20.2504 24H3.74662C3.33403 24 2.99645 23.6625 2.99645 23.25V10.1775L1.25605 11.7975C0.95598 12.0825 0.483371 12.06 0.198306 11.76C-0.0792584 11.46 -0.064255 10.9875 0.235814 10.7025L11.4809 0.2025C11.7735 -0.0675 12.2236 -0.0675 12.5086 0.2025ZM8.24766 18V22.5H10.4982V18H8.24766ZM11.9985 22.5H19.5003V8.775L11.9985 1.7775L4.4968 8.775V22.5H6.74732V17.25C6.74732 16.8375 7.08489 16.5 7.49749 16.5H11.2484C11.661 16.5 11.9985 16.8375 11.9985 17.25V22.5ZM12.7487 15C12.3361 15 11.9986 14.6625 11.9986 14.25V11.25C11.9986 10.8375 12.3361 10.5 12.7487 10.5H17.2498C17.6624 10.5 17.9999 10.8375 17.9999 11.25V14.25C17.9999 14.6625 17.6624 15 17.2498 15H12.7487ZM16.4996 12H13.4989V13.5H16.4996V12Z" fill="black"/>
</svg>

<svg width="24" height="24" viewBox="0 0 24 24" fill="none" xmlns="http://www.w3.org/2000/svg"><path fill-rule="evenodd" clip-rule="evenodd" d="m12.509.203 11.252 10.5c.3.277.323.757.038 1.057a.747.747 0 0 1-1.058.037l-1.74-1.62V23.25c0 .413-.338.75-.75.75H3.746a.752.752 0 0 1-.75-.75V10.178l-1.74 1.62a.748.748 0 1 1-1.021-1.095L11.48.203a.753.753 0 0 1 1.028 0ZM8.248 18v4.5h2.25V18h-2.25Zm3.75 4.5H19.5V8.775l-7.502-6.998-7.501 6.998V22.5h2.25v-5.25c0-.413.338-.75.75-.75h3.751c.413 0 .75.337.75.75v5.25Zm.75-7.5a.752.752 0 0 1-.75-.75v-3c0-.412.338-.75.75-.75h4.502c.412 0 .75.338.75.75v3c0 .412-.338.75-.75.75h-4.501Zm3.752-3h-3.001v1.5h3V12Z" fill="currentColor"/></svg>
